Sources/FrostedUI/Resources/Icons.xcassets/gamepad16.imageset/gamepad-16.svg

<svg width="16" height="16" viewBox="0 0 16 16" fill="none" xmlns="http://www.w3.org/2000/svg" data-fui-icon="true">
  <path
    d="M10.8286 1.99976C13.2945 1.99995 15.3503 3.88764 15.561 6.34448L15.9614 11.0144C16.0991 12.6199 14.8326 13.9997 13.2212 13.9998H13.1646C12.5717 13.9998 11.9941 13.8085 11.519 13.4539L10.0835 12.3816C9.86774 12.2207 9.60557 12.1336 9.33643 12.1335H6.66455C6.39522 12.1335 6.13239 12.2206 5.9165 12.3816L4.48096 13.4539C4.00603 13.8083 3.42903 13.9996 2.83643 13.9998H2.77881C1.16739 13.9997 -0.0990512 12.6199 0.0385742 11.0144L0.438965 6.34448C0.649706 3.88752 2.70635 1.99976 5.17236 1.99976H10.8286ZM5.17236 3.49976C3.48512 3.49976 2.07831 4.79137 1.93408 6.47241L1.53369 11.1433C1.47131 11.873 2.04646 12.4997 2.77881 12.4998H2.83643C3.10561 12.4996 3.36773 12.4127 3.5835 12.2517L5.01904 11.1794C5.49408 10.825 6.07183 10.6336 6.66455 10.6335H9.33643C9.92914 10.6336 10.506 10.8259 10.981 11.1804L12.4165 12.2517C12.6324 12.4129 12.8951 12.4998 13.1646 12.4998H13.2212C13.9535 12.4997 14.5296 11.8729 14.4673 11.1433L14.0669 6.47241C13.9227 4.79149 12.5157 3.49995 10.8286 3.49976H5.17236ZM5.49951 4.99976C5.91364 4.99976 6.24938 5.33566 6.24951 5.74976V6.49976H6.99951C7.41364 6.49976 7.74938 6.83566 7.74951 7.24976C7.74951 7.66397 7.41373 7.99976 6.99951 7.99976H6.24951V8.74976C6.24951 9.16397 5.91373 9.49976 5.49951 9.49976C5.08552 9.4995 4.74951 9.16381 4.74951 8.74976V7.99976H3.99951C3.58552 7.9995 3.24951 7.66381 3.24951 7.24976C3.24965 6.83581 3.5856 6.50001 3.99951 6.49976H4.74951V5.74976C4.74965 5.33581 5.0856 5.00001 5.49951 4.99976ZM9.74951 7.24976C10.3017 7.24976 10.7494 7.69759 10.7495 8.24976C10.7495 8.80204 10.3018 9.24976 9.74951 9.24976C9.19744 9.2495 8.74951 8.80188 8.74951 8.24976C8.74965 7.69774 9.19753 7.25001 9.74951 7.24976ZM11.7495 5.24976C12.3017 5.24976 12.7494 5.69759 12.7495 6.24976C12.7495 6.80204 12.3018 7.24976 11.7495 7.24976C11.1974 7.2495 10.7495 6.80188 10.7495 6.24976C10.7496 5.69774 11.1975 5.25001 11.7495 5.24976Z"
    fill="currentColor"
  />
</svg>

<svg xmlns="http://www.w3.org/2000/svg" width="16" height="16" fill="none" data-fui-icon="true" viewBox="0 0 16 16"><path fill="currentColor" d="M10.829 2a4.75 4.75 0 0 1 4.732 4.344l.4 4.67A2.75 2.75 0 0 1 13.221 14h-.056c-.593 0-1.17-.191-1.646-.546l-1.435-1.072a1.25 1.25 0 0 0-.748-.248H6.665c-.27 0-.533.087-.748.248L4.48 13.454A2.75 2.75 0 0 1 2.836 14H2.78a2.75 2.75 0 0 1-2.74-2.986l.4-4.67A4.75 4.75 0 0 1 5.172 2zM5.172 3.5a3.25 3.25 0 0 0-3.238 2.972l-.4 4.671A1.25 1.25 0 0 0 2.779 12.5h.057c.27 0 .532-.087.748-.248l1.435-1.073a2.75 2.75 0 0 1 1.646-.546h2.671c.593 0 1.17.193 1.645.547l1.435 1.072c.216.16.48.248.749.248h.056a1.25 1.25 0 0 0 1.246-1.357l-.4-4.67A3.25 3.25 0 0 0 10.829 3.5zM5.5 5a.75.75 0 0 1 .75.75v.75H7A.75.75 0 0 1 7 8h-.75v.75a.75.75 0 1 1-1.5 0V8H4a.75.75 0 0 1 0-1.5h.75v-.75A.75.75 0 0 1 5.5 5m4.25 2.25a1 1 0 1 1 0 2 1 1 0 0 1 0-2m2-2a1 1 0 1 1 0 2 1 1 0 0 1 0-2"/></svg>
